dist/img/svg/tg.svg

<svg width="24" height="24" viewBox="0 0 24 24" fill="none" xmlns="http://www.w3.org/2000/svg">
<path d="M10.5532 13.9459C10.3004 14.1729 10.32 14.5747 10.5936 14.776L16.7329 19.293C17.4919 19.716 18.0266 19.4932 18.2314 18.5947L20.9478 5.86596C21.1886 4.74398 20.5428 4.30448 19.8033 4.57973L3.83611 10.6929C2.74638 11.1159 2.76288 11.7234 3.65086 11.9986L7.26342 13.1223C7.56155 13.215 7.88529 13.1731 8.14996 13.0075L17.2151 7.33518C17.6614 7.03969 18.0671 7.20319 17.7334 7.49868L10.5532 13.9459Z" fill="currentColor"/>
</svg>

<svg width="24" height="24" viewBox="0 0 24 24" fill="none" xmlns="http://www.w3.org/2000/svg"><path d="M10.553 13.946a.536.536 0 00.04.83l6.14 4.517c.759.423 1.294.2 1.498-.698l2.717-12.729c.24-1.122-.405-1.562-1.145-1.286L3.836 10.693c-1.09.423-1.073 1.03-.185 1.306l3.612 1.123c.299.093.622.051.887-.114l9.065-5.673c.446-.295.852-.132.518.164l-7.18 6.447z" fill="currentColor"/></svg>
